X:1
T: Farewell to my Troubles
C:
R:Jig
Q:180
K:D
M:6/8
L:1/16
A2|d2e2c2 d2c2A2|G2F2G2 A2F2D2|F2E2F2 G2F2D2|F2G2A2 c4A2|d2e2c2 d2c2A2|G2F2G2 A2F2D2|F6 G4AG|F2D2D2 D4A2|
d2e2c2 d2c2A2|G2F2G2 A2F2D2|F2E2F2 G2F2D2|F2G2A2 c4A2|d2e2c2 d2c2A2|G2F2G2 A2F2D2|F6 G4AG|F2D2D2 D4G2|
F2E2D2 F2G2A2|=c2d2B2 c2A2G2|A2f2e2 d2e2c2|A2B2c2 d4c2|B2G2B2 d2=c2A2|G2F2G2 A2F2D2|F6 G4AG|F2D2D2 D4G2|
F2E2D2 F2G2A2|=c2d2B2 c2A2G2|A2f2e2 d2e2c2|A2B2c2 d4c2|B2G2B2 d2=c2A2|G2F2G2 A2F2D2|F6 G4AG|F2D2D2 D4||
